icons/calendar-quarantine.svg

<svg width="48" height="48" viewBox="0 0 48 48" fill="none" xmlns="http://www.w3.org/2000/svg">
<path fill-rule="evenodd" clip-rule="evenodd" d="M18.8961 31C19.031 31.6929 19.3036 32.3366 19.6842 32.9016L19.0999 33.4858C18.7089 33.1024 18.081 33.1048 17.6929 33.4929C17.3024 33.8834 17.3024 34.5166 17.6929 34.9071L19.0929 36.3071C19.4834 36.6977 20.1166 36.6977 20.5071 36.3071C20.8953 35.919 20.8976 35.2911 20.5142 34.9L21.0984 34.3158C21.6633 34.6964 22.3071 34.969 23 35.1039V36.0458C22.5943 36.1732 22.3 36.5522 22.3 37C22.3 37.5523 22.7477 38 23.3 38H23.9932L24 38L24.0068 38H24.7C25.2523 38 25.7 37.5523 25.7 37C25.7 36.5522 25.4057 36.1732 25 36.0458V35.1039C25.8629 34.9359 26.6494 34.5544 27.3026 34.0168L28.1858 34.9C27.8024 35.2911 27.8047 35.919 28.1929 36.3071C28.5834 36.6977 29.2166 36.6977 29.6071 36.3071L31.0071 34.9071C31.3976 34.5166 31.3976 33.8834 31.0071 33.4929C30.619 33.1048 29.9911 33.1024 29.6001 33.4858L28.5796 32.4653C28.8236 32.013 29.0026 31.5204 29.1039 31H30.0458C30.1732 31.4057 30.5522 31.7 31 31.7C31.5523 31.7 32 31.2523 32 30.7V29.3C32 28.7477 31.5523 28.3 31 28.3C30.5522 28.3 30.1732 28.5943 30.0458 29H29.1039C28.969 28.3071 28.6964 27.6634 28.3158 27.0984L28.9 26.5142C29.2911 26.8976 29.919 26.8952 30.3071 26.5071C30.6976 26.1166 30.6976 25.4834 30.3071 25.0929L28.9071 23.6929C28.5166 23.3024 27.8834 23.3024 27.4929 23.6929C27.1047 24.081 27.1024 24.7089 27.4858 25.1L26.9016 25.6842C26.3367 25.3036 25.6929 25.031 25 24.8961V23.9542C25.4057 23.8268 25.7 23.4478 25.7 23C25.7 22.4477 25.2523 22 24.7 22H23.3C22.7477 22 22.3 22.4477 22.3 23C22.3 23.4478 22.5943 23.8268 23 23.9542V24.8961C22.3071 25.031 21.6633 25.3036 21.0984 25.6842L20.5142 25.1C20.8976 24.7089 20.8953 24.081 20.5071 23.6929C20.1166 23.3024 19.4834 23.3024 19.0929 23.6929L17.6929 25.0929C17.3024 25.4834 17.3024 26.1166 17.6929 26.5071C18.081 26.8952 18.7089 26.8976 19.1 26.5142L19.6842 27.0984C19.3036 27.6634 19.031 28.3071 18.8961 29H17.9542C17.8268 28.5943 17.4478 28.3 17 28.3C16.4477 28.3 16 28.7477 16 29.3V30.7C16 31.2523 16.4477 31.7 17 31.7C17.4478 31.7 17.8268 31.4057 17.9542 31H18.8961ZM20.8 30C20.8 28.2327 22.2327 26.8 24 26.8C25.7673 26.8 27.2 28.2327 27.2 30C27.2 31.7673 25.7673 33.2 24 33.2C22.2327 33.2 20.8 31.7673 20.8 30Z" fill="black"/>
<path fill-rule="evenodd" clip-rule="evenodd" d="M16 6C15.4477 6 15 6.44772 15 7V9H10C8.34315 9 7 10.3431 7 12V39C7 40.6569 8.34315 42 10 42H38C39.6583 42 41 40.6533 41 38.9978V12.0022C41 10.3467 39.6583 9 38 9H35V11H38C38.5509 11 39 11.4485 39 12.0022V18H9V12C9 11.4477 9.44772 11 10 11H15V12C15 12.5523 15.4477 13 16 13C16.5523 13 17 12.5523 17 12V7C17 6.44772 16.5523 6 16 6ZM10 40C9.44772 40 9 39.5523 9 39V20H39V38.9978C39 39.5515 38.5509 40 38 40H10Z" fill="black"/>
<path d="M32 13C31.4477 13 31 12.5523 31 12V11H19V9H31V7C31 6.44772 31.4477 6 32 6C32.5523 6 33 6.44772 33 7V12C33 12.5523 32.5523 13 32 13Z" fill="black"/>
</svg>

<svg
  xmlns="http://www.w3.org/2000/svg"
  width="24"
  height="24"
  viewBox="0 0 24 24"
  fill="none"
  stroke="currentColor"
  stroke-width="2"
  stroke-linecap="round"
  stroke-linejoin="round"
>
  <path
    fill-rule="evenodd"
    d="M18.896 31a5.2 5.2 0 0 0 .788 1.902l-.584.584a1 1 0 0 0-1.407 1.421l1.4 1.4a1 1 0 0 0 1.421-1.407l.584-.584c.565.38 1.21.653 1.902.788v.942A1 1 0 0 0 23.3 38h1.4a1 1 0 0 0 .3-1.954v-.942a5.2 5.2 0 0 0 2.303-1.087l.883.883a1 1 0 0 0 1.421 1.407l1.4-1.4a1 1 0 0 0-1.407-1.421l-1.02-1.02c.244-.453.423-.946.524-1.466h.942A1 1 0 0 0 32 30.7v-1.4a1 1 0 0 0-1.954-.3h-.942a5.2 5.2 0 0 0-.788-1.902l.584-.584a1 1 0 0 0 1.407-1.421l-1.4-1.4a1 1 0 0 0-1.421 1.407l-.584.584A5.2 5.2 0 0 0 25 24.896v-.942A1 1 0 0 0 24.7 22h-1.4a1 1 0 0 0-.3 1.954v.942a5.2 5.2 0 0 0-1.902.788l-.584-.584a1 1 0 0 0-1.421-1.407l-1.4 1.4a1 1 0 0 0 1.407 1.421l.584.584A5.2 5.2 0 0 0 18.896 29h-.942a1 1 0 0 0-1.954.3v1.4a1 1 0 0 0 1.954.3zm1.904-1a3.2 3.2 0 1 1 6.4 0 3.2 3.2 0 0 1-6.4 0"
    clip-rule="evenodd"
  />
  <path
    fill-rule="evenodd"
    d="M16 6a1 1 0 0 0-1 1v2h-5a3 3 0 0 0-3 3v27a3 3 0 0 0 3 3h28c1.658 0 3-1.347 3-3.002V12.002A3 3 0 0 0 38 9h-3v2h3c.55 0 1 .448 1 1.002V18H9v-6a1 1 0 0 1 1-1h5v1a1 1 0 1 0 2 0V7a1 1 0 0 0-1-1m-6 34a1 1 0 0 1-1-1V20h30v18.998C39 39.55 38.55 40 38 40z"
    clip-rule="evenodd"
  />
  <path d="M32 13a1 1 0 0 1-1-1v-1H19V9h12V7a1 1 0 1 1 2 0v5a1 1 0 0 1-1 1" />
</svg>
